svg/resize_horizontal.svg

<svg xmlns="http://www.w3.org/2000/svg" viewBox="0 0 32 32" enable-background="new 0 0 32 32"><path d="M 9.28125 6.78125 L 0.78125 15.28125 L 0.09375 16 L 0.78125 16.71875 L 9.28125 25.21875 L 10.71875 23.78125 L 3.9375 17 L 28.0625 17 L 21.28125 23.78125 L 22.71875 25.21875 L 31.21875 16.71875 L 31.90625 16 L 31.21875 15.28125 L 22.71875 6.78125 L 21.28125 8.21875 L 28.0625 15 L 3.9375 15 L 10.71875 8.21875 L 9.28125 6.78125 z" color="#000" overflow="visible" enable-background="accumulate"/></svg>

<svg xmlns="http://www.w3.org/2000/svg" viewBox="0 0 32 32"><path style="text-indent:0;text-align:start;line-height:normal;text-transform:none;block-progression:tb;-inkscape-font-specification:Bitstream Vera Sans" d="M9.28 6.78l-8.5 8.5-.686.72.687.72 8.5 8.5 1.44-1.44L3.936 17h24.125l-6.78 6.78 1.437 1.44 8.5-8.5.686-.72-.687-.72-8.5-8.5-1.44 1.44L28.063 15H3.938l6.782-6.78-1.44-1.44z" color="#000" overflow="visible" font-family="Bitstream Vera Sans"/></svg>
